FastReport.Core.Web/Resources/spinner.svg

<?xml version="1.0" encoding="utf-8"?>
<svg width="1792" height="1792" viewBox="0 0 1792 1792" xmlns="http://www.w3.org/2000/svg"><path d="M526 1394q0 53-37.5 90.5t-90.5 37.5q-52 0-90-38t-38-90q0-53 37.5-90.5t90.5-37.5 90.5 37.5 37.5 90.5zm498 206q0 53-37.5 90.5t-90.5 37.5-90.5-37.5-37.5-90.5 37.5-90.5 90.5-37.5 90.5 37.5 37.5 90.5zm-704-704q0 53-37.5 90.5t-90.5 37.5-90.5-37.5-37.5-90.5 37.5-90.5 90.5-37.5 90.5 37.5 37.5 90.5zm1202 498q0 52-38 90t-90 38q-53 0-90.5-37.5t-37.5-90.5 37.5-90.5 90.5-37.5 90.5 37.5 37.5 90.5zm-964-996q0 66-47 113t-113 47-113-47-47-113 47-113 113-47 113 47 47 113zm1170 498q0 53-37.5 90.5t-90.5 37.5-90.5-37.5-37.5-90.5 37.5-90.5 90.5-37.5 90.5 37.5 37.5 90.5zm-640-704q0 80-56 136t-136 56-136-56-56-136 56-136 136-56 136 56 56 136zm530 206q0 93-66 158.5t-158 65.5q-93 0-158.5-65.5t-65.5-158.5q0-92 65.5-158t158.5-66q92 0 158 66t66 158z"/></svg>

<svg viewBox="0 0 1792 1792" xmlns="http://www.w3.org/2000/svg"><path d="M526 1394q0 53-37.5 90.5T398 1522q-52 0-90-38t-38-90q0-53 37.5-90.5T398 1266t90.5 37.5T526 1394zm498 206q0 53-37.5 90.5T896 1728t-90.5-37.5T768 1600t37.5-90.5T896 1472t90.5 37.5 37.5 90.5zM320 896q0 53-37.5 90.5T192 1024t-90.5-37.5T64 896t37.5-90.5T192 768t90.5 37.5T320 896zm1202 498q0 52-38 90t-90 38q-53 0-90.5-37.5T1266 1394t37.5-90.5 90.5-37.5 90.5 37.5 37.5 90.5zM558 398q0 66-47 113t-113 47-113-47-47-113 47-113 113-47 113 47 47 113zm1170 498q0 53-37.5 90.5T1600 1024t-90.5-37.5T1472 896t37.5-90.5T1600 768t90.5 37.5T1728 896zm-640-704q0 80-56 136t-136 56-136-56-56-136 56-136T896 0t136 56 56 136zm530 206q0 93-66 158.5T1394 622q-93 0-158.5-65.5T1170 398q0-92 65.5-158t158.5-66q92 0 158 66t66 158z"/></svg>
